X:1
T:Partition sans titre
C:Compositeur / Arrangeur
L:1/8
M:4/4
I:linebreak $
K:D
V:1 treble nm="Violon" snm="Vln."
V:1
"D" D3 E FGFE |"G" D2 dc Bc d2 |"A" E3 F GAGF | E2 ed cd e2 |"D" D3 E FGFE |"G" D2 dc Bc d2 | %6
"A" efed cBAG |1"D" FABc dc d2 :|2"D" FABc d2 Bc |:"D" d2 Ad FdAF |"G" dedc B2 cd |"A" e2 ce AecA | %12
 efed cABc |"D" d2 Ad FdAF |"G" dedc B2 cd |"A" efed cBAG |1"D" FABc d2 Bc :|2"D" FABc dc d2 |] %18
